X: 2381
T: Balance The Straw
R: jig
M: 6/8
K: Gmajor
|:D|G2 B BAB|c2 A ABc|ded cBA|B2 G G2:|
|:B/c/|d2 d d2 G|c2 B B2 A|e2 d GAB|c2 B A2 D|
G2 B BAB|c2 A ABc|ded cBA|B2 G G2:|

